Simply-Orange-Circles/scalable/apps/distributor-logo.svg

<svg xmlns="http://www.w3.org/2000/svg" width="48" height="48" viewBox="0 0 12.7 12.7"><path d="M6.34.07a6.29 6.29 0 0 0-6.29 6.3 6.29 6.29 0 0 0 6.3 6.28 6.29 6.29 0 0 0 6.28-6.29A6.29 6.29 0 0 0 6.34.07zm-.01.94a5.4 5.4 0 0 1 5.4 5.4 5.4 5.4 0 0 1-5.4 5.41 5.4 5.4 0 0 1-5.41-5.4A5.4 5.4 0 0 1 6.32 1zm.02.68C3.79 1.69 1.7 3.5 1.7 6.08v.57h1.7c.07.72.36 1.43.9 1.98a3.12 3.13 0 0 0 4.36.01l-.33-.32-.23-.23a2.4 2.4 0 0 1-3.36.02 2.53 2.53 0 0 1-.68-1.46h6.25a3.98 4 0 0 1-7.83.74l-.64.11a4.63 4.65 0 0 0 4.49 3.51c2.55 0 4.62-1.8 4.62-4.36v-.59H4.06a2.53 2.53 0 0 1 .67-1.43 2.32 2.32 0 0 1 3.33-.03l.56-.55a3.04 3.05 0 0 0-2.1-.91 3.04 3.05 0 0 0-2.24.94 3.26 3.26 0 0 0-.89 1.98H2.36a3.98 4 0 0 1 7.83-.75l.64-.11a4.63 4.65 0 0 0-4.48-3.51z" stroke-width="3.78" fill="#ff7f2a"/></svg>

<?xml version="1.0" encoding="UTF-8" standalone="no"?>
<svg
   xmlns:dc="http://purl.org/dc/elements/1.1/"
   xmlns:cc="http://creativecommons.org/ns#"
   xmlns:rdf="http://www.w3.org/1999/02/22-rdf-syntax-ns#"
   xmlns:svg="http://www.w3.org/2000/svg"
   xmlns="http://www.w3.org/2000/svg"
   xmlns:sodipodi="http://sodipodi.sourceforge.net/DTD/sodipodi-0.dtd"
   xmlns:inkscape="http://www.inkscape.org/namespaces/inkscape"
   width="48"
   height="48"
   viewBox="0 0 12.7 12.7"
   version="1.1"
   id="svg4"
   sodipodi:docname="distributor-logo.svg"
   inkscape:version="0.92.4 (5da689c313, 2019-01-14)">
  <metadata
     id="metadata10">
    <rdf:RDF>
      <cc:Work
         rdf:about="">
        <dc:format>image/svg+xml</dc:format>
        <dc:type
           rdf:resource="http://purl.org/dc/dcmitype/StillImage" />
        <dc:title></dc:title>
      </cc:Work>
    </rdf:RDF>
  </metadata>
  <defs
     id="defs8" />
  <sodipodi:namedview
     pagecolor="#ffffff"
     bordercolor="#666666"
     borderopacity="1"
     objecttolerance="10"
     gridtolerance="10"
     guidetolerance="10"
     inkscape:pageopacity="0"
     inkscape:pageshadow="2"
     inkscape:window-width="1087"
     inkscape:window-height="480"
     id="namedview6"
     showgrid="false"
     inkscape:zoom="4.9166667"
     inkscape:cx="2.1355932"
     inkscape:cy="24"
     inkscape:window-x="0"
     inkscape:window-y="25"
     inkscape:window-maximized="0"
     inkscape:current-layer="svg4" />
  <path
     d="M 6.34,0.07 A 6.29,6.29 0 0 0 0.05,6.37 6.29,6.29 0 0 0 6.35,12.65 6.29,6.29 0 0 0 12.63,6.36 6.29,6.29 0 0 0 6.34,0.07 Z M 6.33,1.01 a 5.4,5.4 0 0 1 5.4,5.4 5.4,5.4 0 0 1 -5.4,5.41 A 5.4,5.4 0 0 1 0.92,6.42 5.4,5.4 0 0 1 6.32,1 Z M 6.35,1.69 C 3.79,1.69 1.7,3.5 1.7,6.08 V 6.65 H 3.4 C 3.47,7.37 3.76,8.08 4.3,8.63 A 3.12,3.13 0 0 0 8.66,8.64 L 8.33,8.32 8.1,8.09 C 7.18,9 5.67,9.02 4.74,8.11 A 2.53,2.53 0 0 1 4.06,6.65 h 6.25 A 3.98,4 0 0 1 2.48,7.39 L 1.84,7.5 a 4.63,4.65 0 0 0 4.49,3.51 c 2.55,0 4.62,-1.8 4.62,-4.36 V 6.06 H 4.06 A 2.53,2.53 0 0 1 4.73,4.63 2.32,2.32 0 0 1 8.06,4.6 L 8.62,4.05 A 3.04,3.05 0 0 0 6.52,3.14 3.04,3.05 0 0 0 4.28,4.08 3.26,3.26 0 0 0 3.39,6.06 H 2.36 A 3.98,4 0 0 1 10.19,5.31 L 10.83,5.2 A 4.63,4.65 0 0 0 6.35,1.69 Z"
     id="path2"
     inkscape:connector-curvature="0"
     style="fill:#ff7f2a;stroke-width:3.77999997" />
</svg>
